X:22
T:Phoebe's Delight. JJo8.022
B:J.Johnson Choice Collection Vol 8 1758
Z:vmp.Simon Wilson 2013 www.village-music-project.org.uk
M:6/8
L:1/8
Q:3/8=120
K:A
|:E|CEA Ace|{d}c3-c2d/f/|ecA dBG|AED CB,A,|
CEA Ace|{d}c3-c2a|gbe fa^d|(e3e2):|
|:B|GBe egb|{a}g3-g2a|bge af^d|eBA GFE|
CEA Ace|{d}c3-c2(d/f/)|ecA dBG|A3A2:|

